src/main/resources/icons/AllIcons/json/array.svg

<svg xmlns="http://www.w3.org/2000/svg" width="16" height="16" viewBox="0 0 16 16"><rect id="frame" width="16" height="16" fill="none"/><path fill="#7F8B91" fill-opacity=".9" fill-rule="evenodd" d="M2 13V3h4v1.5H3.5v7H6V13H2zm8 0v-1.5h2.5v-7H10V3h4v10h-4z"/></svg>

<!-- Copyright 2000-2021 JetBrains s.r.o. Use of this source code is governed by the Apache 2.0 license that can be found in the LICENSE file. -->
<svg xmlns="http://www.w3.org/2000/svg" width="16" height="16" viewBox="0 0 16 16">
  <path fill="#7F8B91" fill-opacity=".9" fill-rule="evenodd" d="M2,13 L2,3 L6,3 L6,4.5 L3.5,4.5 L3.5,11.5 L6,11.5 L6,13 L2,13 Z M10,13 L10,11.5 L12.5,11.5 L12.5,4.5 L10,4.5 L10,3 L13.999759,3 L13.999759,13 L10,13 Z"/>
</svg>
